source/img/form/text/phone_icon_input.svg

<svg width="20" height="20" viewBox="0 0 20 20" fill="none" xmlns="http://www.w3.org/2000/svg">
<path d="M10.0022 10H18.5041M18.5041 10L16.0036 7.5M18.5041 10L16.0036 12.5M8.50191 2.5V7.5H5.50124V12.5H8.50191V17.5H6.00135C4.50102 17.5 3.50079 16.5 3.50079 15V5C3.50079 3.5 4.50102 2.5 6.00135 2.5H8.50191Z" stroke="black" stroke-linecap="round" stroke-linejoin="round"/>
</svg>

<svg width="20" height="20" fill="none" xmlns="http://www.w3.org/2000/svg"><path d="M10.002 10h8.502m0 0-2.5-2.5m2.5 2.5-2.5 2.5m-7.502-10v5h-3v5h3v5h-2.5C4.5 17.5 3.5 16.5 3.5 15V5c0-1.5 1-2.5 2.5-2.5h2.5Z" stroke="#000" stroke-linecap="round" stroke-linejoin="round"/></svg>
